dist/img/svg/email.svg

<svg width="20" height="16" viewBox="0 0 20 16" fill="none" xmlns="http://www.w3.org/2000/svg">
<path d="M19.9805 2.14142C19.9935 2.10354 20 2.06566 20 2.02778C20 1.9899 19.9935 1.95202 19.9805 1.91414C19.9674 1.87626 19.9544 1.83838 19.9414 1.80051C19.7852 1.11869 19.2839 0.777779 18.4375 0.777779H2.1875C1.79688 0.777779 1.41927 0.847223 1.05469 0.986112C0.703125 1.125 0.436198 1.31439 0.253906 1.55429C0.214844 1.59217 0.182292 1.62374 0.15625 1.64899C0.0260417 1.78788 -0.0195312 1.95202 0.0195312 2.14142C0.00651042 2.16667 0 2.19192 0 2.21717C0 2.24243 0 2.26768 0 2.29293V13.101C0 13.6061 0.234375 14.0859 0.703125 14.5404C1.17188 14.995 1.66667 15.2222 2.1875 15.2222H18.4375C18.9193 15.2222 19.2969 15.0076 19.5703 14.5783C19.8568 14.149 20 13.6566 20 13.101V2.29293C20 2.2803 20 2.26768 20 2.25505C20 2.2298 20 2.21086 20 2.19823C20 2.17298 19.9935 2.15404 19.9805 2.14142ZM2.1875 1.9899H18.4375L10 8.52399L1.58203 2.00884C1.6862 1.99621 1.88802 1.9899 2.1875 1.9899ZM18.4375 14.0101H2.1875C2.07031 14.0101 1.93359 13.9596 1.77734 13.8586C1.63411 13.7576 1.51042 13.6376 1.40625 13.4987C1.30208 13.3472 1.25 13.2146 1.25 13.101V3.31566L9.58984 9.77399C9.70703 9.875 9.84375 9.92551 10 9.92551C10.1563 9.91288 10.293 9.86238 10.4102 9.77399L18.75 3.31566V13.101C18.75 13.1136 18.75 13.1389 18.75 13.1768C18.75 13.7323 18.6458 14.0101 18.4375 14.0101Z" fill="#C78E66"/>
</svg>

<svg width="20" height="16" viewBox="0 0 20 16" fill="none" xmlns="http://www.w3.org/2000/svg"><path d="M19.98 2.141a.348.348 0 0 0 0-.227l-.039-.113c-.156-.682-.657-1.023-1.503-1.023H2.188c-.391 0-.769.07-1.133.208-.352.139-.619.328-.801.568l-.098.095a.526.526 0 0 0-.136.492.164.164 0 0 0-.02.076v10.884c0 .505.234.985.703 1.44.469.454.964.681 1.485.681h16.25c.481 0 .859-.214 1.132-.644a2.6 2.6 0 0 0 .43-1.477V2.198c0-.025-.006-.044-.02-.057zM2.188 1.99h16.25L10 8.524 1.582 2.009c.104-.013.306-.02.605-.02zm16.25 12.02H2.188c-.117 0-.253-.05-.41-.151a1.648 1.648 0 0 1-.37-.36c-.105-.152-.157-.284-.157-.398V3.316l8.34 6.458a.609.609 0 0 0 .41.152.769.769 0 0 0 .41-.152l8.34-6.458v9.861c0 .555-.104.833-.313.833z" fill="#C78E66"/></svg>
